sprites/actors/ghost_scared/ghost_scared_right_alternate.svg

<?xml version="1.0" encoding="UTF-8" standalone="no"?>
<!-- Created with Inkscape (http://www.inkscape.org/) -->

<svg
   width="100"
   height="100"
   viewBox="0 0 100 100"
   version="1.1"
   id="svg5"
   inkscape:version="1.2 (dc2aeda, 2022-05-15)"
   sodipodi:docname="ghost_scared_right_alternate.svg"
   xmlns:inkscape="http://www.inkscape.org/namespaces/inkscape"
   xmlns:sodipodi="http://sodipodi.sourceforge.net/DTD/sodipodi-0.dtd"
   xmlns="http://www.w3.org/2000/svg"
   xmlns:svg="http://www.w3.org/2000/svg">
  <sodipodi:namedview
     id="namedview7"
     pagecolor="#ffffff"
     bordercolor="#000000"
     borderopacity="0.25"
     inkscape:showpageshadow="2"
     inkscape:pageopacity="0.0"
     inkscape:pagecheckerboard="0"
     inkscape:deskcolor="#d1d1d1"
     inkscape:document-units="px"
     showgrid="true"
     inkscape:zoom="5.5731762"
     inkscape:cx="45.844594"
     inkscape:cy="54.99557"
     inkscape:window-width="1920"
     inkscape:window-height="1016"
     inkscape:window-x="0"
     inkscape:window-y="0"
     inkscape:window-maximized="1"
     inkscape:current-layer="layer1">
    <inkscape:grid
       type="xygrid"
       id="grid2865" />
  </sodipodi:namedview>
  <defs
     id="defs2">
    <inkscape:perspective
       sodipodi:type="inkscape:persp3d"
       inkscape:vp_x="0 : 50 : 1"
       inkscape:vp_y="0 : 1000 : 0"
       inkscape:vp_z="100 : 50 : 1"
       inkscape:persp3d-origin="50 : 33.333333 : 1"
       id="perspective5340" />
  </defs>
  <g
     inkscape:label="Layer 1"
     inkscape:groupmode="layer"
     id="layer1">
    <path
       id="path13817"
       style="fill:#110485;fill-opacity:1;stroke-width:10"
       d="m 88.15059,38.241912 c 1.767402,5.650724 1.513313,11.354806 1.515831,16.912134 0.0069,15.133555 2.336145,24.776064 -0.602871,33.38026 -0.492324,1.441316 -3.330599,5.865419 -5.25199,1.565202 -2.352881,-5.265926 1.161496,-15.93746 -2.375508,-16.923807 -2.973034,-0.829075 -5.248128,-1.693574 -5.71797,0.775612 -1.023113,5.376824 -0.60908,13.193637 -2.480487,16.001063 -1.957218,2.936158 -5.125683,2.100993 -7.039032,0.422685 C 63.691718,88.176164 63.863764,79.185817 62.523496,74.841203 61.3993,71.197008 54.094045,70.772488 52.511784,73.743655 c -0.47283,0.887879 0.731997,12.528154 -1.89226,15.989074 -2.118493,2.793911 -8.519457,3.11295 -10.177281,0.06792 -2.447128,-4.494787 -1.083697,-14.38393 -3.426147,-15.271947 -3.13367,-1.187966 -1.271199,-1.52938 -8.605429,0.312823 -3.165479,0.795101 -2.955486,12.256973 -4.781011,14.808183 C 22.768743,90.852857 13.050904,91.689587 10.989239,85.927659 9.9983419,83.158306 10.528036,56.442006 10.279775,53.627516 8.6674062,35.348351 19.89767,17.771464 38.127833,12.0641 46.669214,9.3900281 55.434158,9.7326425 63.274037,12.49111 74.743495,16.526648 84.233072,25.732745 88.146273,38.228118 L 50.05386,50.157593 Z"
       sodipodi:nodetypes="cssssssssssssssssssccc" />
    <path
       style="fill:#ffff64;fill-opacity:1;stroke-width:10"
       id="path14682-9"
       sodipodi:type="arc"
       sodipodi:cx="71.784271"
       sodipodi:cy="37.338451"
       sodipodi:rx="10.931968"
       sodipodi:ry="10.931968"
       sodipodi:start="5.9800505"
       sodipodi:end="5.9796884"
       sodipodi:arc-type="slice"
       d="M 82.2178,34.075111 A 10.931968,10.931968 0 0 1 75.048556,47.771685 10.931968,10.931968 0 0 1 61.351333,40.603681 10.931968,10.931968 0 0 1 68.518097,26.905809 10.931968,10.931968 0 0 1 82.216618,34.071333 L 71.784271,37.338451 Z" />
    <path
       style="fill:#ffff64;fill-opacity:1;stroke-width:10"
       id="path14682-7"
       sodipodi:type="arc"
       sodipodi:cx="46.179626"
       sodipodi:cy="37.416248"
       sodipodi:rx="10.931968"
       sodipodi:ry="10.931968"
       sodipodi:start="5.9800505"
       sodipodi:end="5.9796884"
       sodipodi:arc-type="slice"
       d="M 56.613155,34.152908 A 10.931968,10.931968 0 0 1 49.443911,47.849482 10.931968,10.931968 0 0 1 35.746688,40.681478 10.931968,10.931968 0 0 1 42.913453,26.983606 10.931968,10.931968 0 0 1 56.611973,34.14913 L 46.179626,37.416248 Z" />
    <path
       style="fill:#000000;fill-opacity:1;stroke-width:8.75852"
       id="path25750"
       sodipodi:type="arc"
       sodipodi:cx="59.585426"
       sodipodi:cy="59.84721"
       sodipodi:rx="18.031754"
       sodipodi:ry="4.353302"
       sodipodi:start="5.9800505"
       sodipodi:end="5.9796884"
       sodipodi:arc-type="slice"
       d="M 76.795029,58.54769 A 18.031754,4.353302 0 0 1 64.969707,64.001907 18.031754,4.353302 0 0 1 42.376798,61.147482 18.031754,4.353302 0 0 1 54.19803,55.692748 18.031754,4.353302 0 0 1 76.793079,58.546186 L 59.585426,59.84721 Z" />
  </g>
</svg>

<svg width="100" height="100" xmlns="http://www.w3.org/2000/svg"><path d="M88.15 38.242c1.768 5.65 1.514 11.355 1.516 16.912.007 15.134 2.337 24.776-.602 33.38-.493 1.442-3.331 5.866-5.252 1.566-2.353-5.266 1.161-15.938-2.376-16.924-2.973-.83-5.248-1.694-5.718.775-1.023 5.377-.609 13.194-2.48 16.001-1.958 2.937-5.126 2.101-7.04.423-2.506-2.199-2.334-11.19-3.675-15.534-1.124-3.644-8.429-4.069-10.011-1.097-.473.888.732 12.528-1.892 15.989-2.119 2.794-8.52 3.113-10.178.068-2.447-4.495-1.083-14.384-3.426-15.272-3.134-1.188-1.271-1.53-8.605.313-3.166.795-2.956 12.256-4.781 14.808-.861 1.203-10.58 2.04-12.64-3.722-.992-2.77-.462-29.486-.71-32.3-1.613-18.28 9.618-35.857 27.848-41.564a39.74 39.74 0 0 1 25.146.427c11.47 4.036 20.96 13.242 24.872 25.737l-38.092 11.93z" fill="#110485"/><path d="M82.218 34.075a10.932 10.932 0 0 1-7.17 13.697 10.932 10.932 0 0 1-13.697-7.168 10.932 10.932 0 0 1 7.167-13.698 10.932 10.932 0 0 1 13.699 7.165l-10.433 3.267zM56.613 34.153a10.932 10.932 0 0 1-7.17 13.696 10.932 10.932 0 0 1-13.696-7.168 10.932 10.932 0 0 1 7.166-13.697 10.932 10.932 0 0 1 13.699 7.165L46.18 37.416z" fill="#ffff64"/><path d="M76.795 58.548a18.032 4.353 0 0 1-11.825 5.454 18.032 4.353 0 0 1-22.593-2.855 18.032 4.353 0 0 1 11.821-5.454 18.032 4.353 0 0 1 22.595 2.853l-17.208 1.301z"/></svg>
